X: 20529
T: John McFadden's
R: slip jig
M: 9/8
K: Dmajor
D3 A2D E2D|B,2E E2D B2A|D3 F2A F2D|A,2B, D2E F2D:|
d3 d2B c2A|B2e e2d c2A|d3 d2B c2A|A2A d2A F2D|
d3 d2B c2A|B2e e2d c2A|f2d e2c d2A|A2A d2A F2D||

